X:92
T:O, A, A, Coui Iu Fora ?
M:6/8
L:1/8
N:Pas trop vite
N:La Bourre 4th edition 1929, page 89
Z:Steve Mansfield www.lesession.co.uk June 2012
K:Am
c2 B | A2 A B c d | !fermata! e3 e f e | 
(d2 e/d/) B3 - ||[M:2/4] !fermata! B z "Vite" A/ A? B/ c/ | B B A/ A/ B/ c/ |
B B A/ A/ B/ c/ | B B A/ A/ B/ c/ |
B B A/ A/ B/ c/ | B B A/ B/ "rall." c/ A/ | B2 E2 - |
!fermata! E z !f! (3 !tenuto! c2 B | (3 !tenuto! A2 B c d | e2 (3 d e g | e d c B | A4 |]
<end>
<start>
